X:1
T: Jesucita en Chihuahua
T: Mexican Mixer
R: Polka
Z: John Chambers <jc@trillian.mit.edu> http://trillian.mit.edu/~jc/music/
C: Trad
M: 2/4
L: 1/8
K: G
P:Ax2
|: "G"B2 ce | d2 ^cd | g>d ^cd | "D7"fe ^de \
| "D7"a2 ge | g2 fc | f>c Bc | ed _dc |
|  "G"B2 ce | d^c/d/ e/f/g/a/ | bg fg | "C"ae ^de \
|     ag fe | "G"gd ^cd | "A"eg "D7"fa | "G"g2 g2 :|
P:Bx2
K:D
|: "A7"a2 g2 | "D"fe/f/ gf | "A7"ed/e/ fe | "D"e/d/c/B/A2 \
|  "A7"a2 g2 | "D"fe/f/ gf | "A7"ed/e/ fe |1 "D"d[fd] d2 :|2 "D"dd "D7"_dc |]
P:Ax1
K:G
[| "G"B2 ce | d2 ^cd | g>d ^cd | "D7"fe ^de \
| "D7"a2 ge | g2 fc | f>c Bc | ed _dc |
|  "G"B2 ce | d^c/d/ e/f/g/a/ | bg fg | "C"ae ^de \
|     ag fe | "G"gd ^cd | "A"eg "D7"fa | "G"g2 g2 |]
P:Cx4
K:C
|: "C"([g4e] | [ge])[ec] [fd][ge] | "F"([a4f] |[af])[fd] [ge][af] \
| "G7"[b4g] | [a2^f] [b2=f] |1 "C"[a2f] ([g2e]| [ge])[ec] [fd][^f^d] :|2 "C"([c'4e] | [c'e]) z :|
L:1/16
P:Dx2
K:G
|: "D7"DEFG ABcd | "G"edBG D2g2 | "D7"fecA F2f2 | "G"edBG D4 \
|  "D7"DEFG ABcd | "G"edBG D2g2 | "D7"fedc BdcA | "G"G4 G4 :|
L: 1/8
P:Cx2
K:C
[| "C"([g4e] | [ge])[ec] [fd][ge] | "F"([a4f] |[af])[fd] [ge][af] \
| "G7"[b4g] | [a2^f] [b2=f] |1 "C"[a2f] ([g2e]| [ge])[ec] [fd][^f^d] :|2 "C"([c'4e] | [c'e]) z |]
P:Ax1
K:G
[| "G"B2 ce | d2 ^cd | g>d ^cd | "D7"fe ^de \
| "D7"a2 ge | g2 fc | f>c Bc | ed _dc |
|  "G"B2 ce | d^c/d/ e/f/g/a/ | bg fg | "C"ae ^de \
|     ag fe | "G"gd ^cd | "A"eg "D7"fa | "G"g2 g2 |]
